X: 16054
T: Green Fields Of America, The
R: reel
M: 4/4
K: Gmajor
c2ec B2dB|AGAB AGEF|G3E DEGB|AGAB AGAB|
c2ec B2dB|AGAB AGEF|G3E DEGA|BGAF G3z:|
GABc d2ef|gage dBGB|cEGE DEGB|AGAB Aded|
g3d efge|dgBG AGED|G3E DEGA|BGAF G3z:|

